1-js/05-data-types/04-array/stack.svg

<?xml version="1.0" encoding="UTF-8"?>
<svg width="145px" height="149px" viewBox="0 0 145 149" version="1.1" xmlns="http://www.w3.org/2000/svg" xmlns:xlink="http://www.w3.org/1999/xlink">
    <!-- Generator: sketchtool 55.2 (78181) - https://sketchapp.com -->
    <title>stack.svg</title>
    <desc>Created with sketchtool.</desc>
    <g id="array" stroke="none" stroke-width="1" fill="none" fill-rule="evenodd">
        <g id="stack.svg">
            <path d="M40.3897441,83.61658 C38.9407258,84.172806 37.3961151,84.1250015 36.6600162,83.4286119 C35.7731815,82.5915945 36.3943939,81.1320243 38.0467333,80.1682576 L62.9811663,65.6321994 C64.6325837,64.6695806 66.6895992,64.5683288 67.5776217,65.4048903 C68.4635344,66.2430555 67.8423219,67.7026257 66.1897169,68.6657004 L41.2552839,83.2017587 C40.9757603,83.3646349 40.6842986,83.5035111 40.3897441,83.61658 L40.3897441,83.61658 Z" id="Shape-3" fill="#E8C48F"></path>
            <path d="M49.8614911,90.3821136 C48.4124728,90.9383396 46.8678621,90.8905351 46.1317632,90.1941454 C45.2449284,89.3571281 45.8661409,87.8975579 47.5184803,86.9337912 L72.4529133,72.3977329 C74.1043307,71.4351141 76.1613461,71.3338624 77.0493686,72.1704238 C77.9352813,73.0085891 77.3140689,74.4681593 75.6614638,75.431234 L50.7270308,89.9672923 C50.4475073,90.1301684 50.1560456,90.2690447 49.8614911,90.3821136 L49.8614911,90.3821136 Z" id="Shape-4" fill="#E8C48F"></path>
            <path d="M59.333238,95.7945404 C57.8842197,96.3507664 56.3396091,96.3029619 55.6035102,95.6065723 C54.7166754,94.7695549 55.3378878,93.3099847 56.9902273,92.346218 L81.9246603,77.8101597 C83.5760776,76.847541 85.6330931,76.7462892 86.5211156,77.5828507 C87.4070283,78.4210159 86.7858159,79.8805861 85.1332108,80.8436608 L60.1987778,95.3797191 C59.9192543,95.5425953 59.6277926,95.6814715 59.333238,95.7945404 L59.333238,95.7945404 Z" id="Shape-5" fill="#E8C48F"></path>
            <path d="M135.388449,102.355616 C135.388449,101.821139 135.10159,101.328608 134.638828,101.062046 L129.704048,98.2137566 L134.638828,95.3627608 C135.10159,95.0961988 135.388449,94.6023148 135.388449,94.0691908 C135.388449,93.5333605 135.10159,93.0421828 134.638828,92.7756208 L65.0553152,52.5978233 C64.5925527,52.3312612 64.0228948,52.3312612 63.5601323,52.5978233 L14.357113,81.0062986 C13.8943505,81.2728606 13.6101981,81.7667446 13.6101981,82.3012217 C13.6101981,82.8356989 13.8943505,83.3282297 14.357113,83.5947917 L19.2932463,86.4457876 L14.357113,89.2954303 C13.8943505,89.5619923 13.6101981,90.0558763 13.6101981,90.5890003 C13.6101981,91.1248306 13.8943505,91.6173614 14.357113,91.8852766 L19.2945994,94.7349193 L14.357113,97.584562 C13.8943505,97.851124 13.6101981,98.345008 13.6101981,98.8794851 C13.6101981,99.4139623 13.8943505,99.9064931 14.357113,100.173055 L83.9433317,140.348146 C84.174713,140.482104 84.4318032,140.548406 84.6902466,140.548406 C84.94869,140.548406 85.2071334,140.480751 85.4385146,140.348146 L134.640181,111.941024 C135.102943,111.674462 135.389802,111.180578 135.389802,110.646101 C135.389802,110.111624 135.102943,109.61774 134.640181,109.352531 L129.704048,106.501535 L134.640181,103.651893 C135.10159,103.383977 135.388449,102.890093 135.388449,102.355616 L135.388449,102.355616 Z M64.3070472,55.6179574 L130.9029,94.0678377 L84.6902466,120.751102 L18.0930406,82.3012217 L64.3070472,55.6179574 L64.3070472,55.6179574 Z M126.915295,108.343113 L130.9029,110.646101 L84.6902466,137.329365 L18.0930406,98.8794851 L22.282259,96.4601303 L83.9433317,132.060368 C84.174713,132.194325 84.4318032,132.259275 84.6902466,132.259275 C84.94869,132.259275 85.2071334,132.192972 85.4385146,132.060368 L126.736685,108.214568 C126.792162,108.260574 126.850345,108.30658 126.915295,108.343113 L126.915295,108.343113 Z M84.6902466,129.038881 L18.1688146,90.6336529 L18.0930406,90.5890003 L22.282259,88.1709986 L83.9433317,123.771236 C84.174713,123.905194 84.4318032,123.971496 84.6902466,123.971496 C84.94869,123.971496 85.2071334,123.903841 85.4385146,123.771236 L126.844933,99.8645468 C126.96536,100.028273 127.116907,100.171702 127.303636,100.279951 L130.904253,102.356969 L84.6902466,129.038881 L84.6902466,129.038881 Z" id="Shape-6" fill="#E8C48F"></path>
            <path d="M63.0458601,64.9371416 C62.7513542,65.2686528 62.3912905,65.4256131 62.009038,65.4256131 C61.2455417,65.4256131 60.3912729,64.7991247 59.7851153,63.6733399 L50.5384378,46.5267717 C49.7295553,45.0248233 50.2479663,43.259019 51.3412689,43.259019 C51.4774274,43.259019 51.6236718,43.2860812 51.7769762,43.3442647 L56.2671822,45.0803007 L56.3337485,10.4515938 L68.6424804,18.5385228 L68.6424802,49.8865357 L73.1347033,51.6252778 C74.5104088,52.1584018 74.9158586,53.4059662 74.0313324,54.4004997 L63.0458601,64.9371416 Z" id="Shape" fill="#EE6B47"></path>
            <path d="M94.1673144,33.9428793 C93.8728085,33.6113682 93.5127448,33.4544078 93.1304923,33.4544078 C92.366996,33.4544078 91.5127272,34.0808962 90.9065696,35.206681 L81.6598921,52.3532492 C80.8510096,53.8551977 81.3694206,55.6210019 82.4627232,55.6210019 C82.5988818,55.6210019 82.7451261,55.5939398 82.8984305,55.5357562 L87.3886365,53.7997203 L87.4552029,88.4284272 L99.7639347,95.9946299 L99.7639345,48.9934853 L104.256158,47.2547431 C105.631863,46.7216191 106.037313,45.4740547 105.152787,44.4795213 L94.1673144,33.9428793 Z" id="Shape-2" fill="#EE6B47"></path>
            <text id="push" font-family="OpenSans-Bold, Open Sans" font-size="14" font-weight="bold" fill="#EE6B47">
                <tspan x="13.3896484" y="32">push</tspan>
            </text>
            <text id="pop" font-family="OpenSans-Bold, Open Sans" font-size="14" font-weight="bold" fill="#EE6B47">
                <tspan x="109.306641" y="63">pop</tspan>
            </text>
        </g>
    </g>
</svg>

<svg xmlns="http://www.w3.org/2000/svg" width="145" height="149" viewBox="0 0 145 149"><defs><style>@import url(https://fonts.googleapis.com/css?family=Open+Sans:bold,italic,bolditalic%7CPT+Mono);@font-face{font-family:&apos;PT Mono&apos;;font-weight:700;font-style:normal;src:local(&apos;PT MonoBold&apos;),url(/font/PTMonoBold.woff2) format(&apos;woff2&apos;),url(/font/PTMonoBold.woff) format(&apos;woff&apos;),url(/font/PTMonoBold.ttf) format(&apos;truetype&apos;)}</style></defs><g id="array" fill="none" fill-rule="evenodd" stroke="none" stroke-width="1"><g id="stack.svg"><path id="Shape-3" fill="#E8C48F" d="M40.39 83.617c-1.45.556-2.994.508-3.73-.188-.887-.837-.266-2.297 1.387-3.26L62.98 65.631c1.652-.962 3.709-1.064 4.597-.227.886.838.264 2.298-1.388 3.26L41.255 83.203c-.28.163-.57.302-.865.415z"/><path id="Shape-4" fill="#E8C48F" d="M49.861 90.382c-1.449.556-2.993.509-3.73-.188-.886-.837-.265-2.296 1.387-3.26l24.935-14.536c1.651-.963 3.708-1.064 4.596-.228.886.839.265 2.298-1.388 3.261L50.727 89.967c-.28.163-.571.302-.866.415z"/><path id="Shape-5" fill="#E8C48F" d="M59.333 95.795c-1.449.556-2.993.508-3.73-.188-.886-.837-.265-2.297 1.387-3.26L81.925 77.81c1.651-.962 3.708-1.064 4.596-.227.886.838.265 2.298-1.388 3.26L60.2 95.38c-.28.163-.571.301-.866.415z"/><path id="Shape-6" fill="#E8C48F" d="M135.388 102.356c0-.535-.286-1.027-.75-1.294l-4.934-2.848 4.935-2.851a1.492 1.492 0 000-2.587L65.055 52.598a1.498 1.498 0 00-1.495 0L14.357 81.006a1.493 1.493 0 000 2.589l4.936 2.85-4.936 2.85a1.496 1.496 0 000 2.59l4.938 2.85-4.938 2.85a1.493 1.493 0 000 2.588l69.586 40.175a1.487 1.487 0 001.496 0l49.201-28.407a1.492 1.492 0 000-2.588l-4.936-2.851 4.936-2.85c.462-.268.748-.762.748-1.296zM64.307 55.618l66.596 38.45L84.69 120.75l-66.597-38.45 46.214-26.683zm62.608 52.725l3.988 2.303L84.69 137.33 18.093 98.88l4.19-2.419 61.66 35.6a1.504 1.504 0 001.495 0l41.299-23.845c.055.046.113.092.178.128zM84.69 129.04L18.17 90.634l-.076-.045 4.19-2.418 61.66 35.6a1.487 1.487 0 001.496 0l41.406-23.906c.12.163.272.307.459.415l3.6 2.077-46.214 26.682z"/><path id="Shape" fill="#EE6B47" d="M63.046 64.937c-.295.332-.655.489-1.037.489-.763 0-1.618-.627-2.224-1.753l-9.247-17.146c-.808-1.502-.29-3.268.803-3.268.136 0 .283.027.436.085l4.49 1.736.067-34.628 12.308 8.087v31.348l4.493 1.738c1.375.533 1.78 1.781.896 2.775L63.046 64.937z"/><path id="Shape-2" fill="#EE6B47" d="M94.167 33.943c-.294-.332-.654-.489-1.037-.489-.763 0-1.617.627-2.223 1.753L81.66 52.353c-.809 1.502-.29 3.268.803 3.268.136 0 .282-.027.435-.085l4.49-1.736.067 34.628 12.309 7.567V48.993l4.492-1.738c1.376-.533 1.781-1.78.897-2.775L94.167 33.943z"/><text id="push" fill="#EE6B47" font-family="OpenSans-Bold, Open Sans" font-size="14" font-weight="bold"><tspan x="13.39" y="32">push</tspan></text><text id="pop" fill="#EE6B47" font-family="OpenSans-Bold, Open Sans" font-size="14" font-weight="bold"><tspan x="109.307" y="63">pop</tspan></text></g></g></svg>
